icons/scalable/qui-clipboard.svg

<svg width="48" height="48" viewBox="0 0 48 48" fill="none" xmlns="http://www.w3.org/2000/svg">
<path d="M29.999 4.00195H17.999C16.8945 4.00195 15.999 4.89738 15.999 6.00195V10.002C15.999 11.1065 16.8945 12.002 17.999 12.002H29.999C31.1036 12.002 31.999 11.1065 31.999 10.002V6.00195C31.999 4.89738 31.1036 4.00195 29.999 4.00195Z" stroke="#737373" stroke-width="4" stroke-linecap="round" stroke-linejoin="round"/>
<path d="M32.001 7.99805H36.001C37.0618 7.99805 38.0793 8.41947 38.8294 9.16962C39.5795 9.91977 40.001 10.9372 40.001 11.998V39.998C40.001 41.0589 39.5795 42.0763 38.8294 42.8265C38.0793 43.5766 37.0618 43.998 36.001 43.998H12.001C10.9401 43.998 9.92269 43.5766 9.17255 42.8265C8.4224 42.0763 8.00098 41.0589 8.00098 39.998V11.998C8.00098 10.9372 8.4224 9.91977 9.17255 9.16962C9.92269 8.41947 10.9401 7.99805 12.001 7.99805H16.001" stroke="#737373" stroke-width="4" stroke-linecap="round" stroke-linejoin="round"/>
</svg>

<svg xmlns="http://www.w3.org/2000/svg" width="48" height="48" fill="none" viewBox="0 0 48 48">
    <path stroke="#737373" stroke-linecap="round" stroke-linejoin="round" stroke-width="4" d="M29.999 4.002h-12a2 2 0 0 0-2 2v4a2 2 0 0 0 2 2h12a2 2 0 0 0 2-2v-4a2 2 0 0 0-2-2"/>
    <path stroke="#737373" stroke-linecap="round" stroke-linejoin="round" stroke-width="4" d="M32.001 7.998h4a4 4 0 0 1 4 4v28a4 4 0 0 1-4 4h-24a4 4 0 0 1-4-4v-28a4 4 0 0 1 4-4h4"/>
</svg>
